symbols/web/person_off/materialsymbolsoutlined/person_off_wght500gradN25_48px.svg

<svg xmlns="http://www.w3.org/2000/svg" height="48" width="48"><path d="M40.9 45 36 40.15H7.95v-4.9q0-1.95.975-3.35.975-1.4 2.525-2.1 3-1.35 5.75-2.075 2.75-.725 5.55-.875L3 7.1l2.1-2.15 37.95 37.9Zm-29.7-8.15h21.5l-6.7-6.7q-.45 0-.975-.025Q24.5 30.1 24 30.1q-2.8 0-5.45.55-2.65.55-5.7 2.05-.7.35-1.175 1.075-.475.725-.475 1.525Zm25.3-7.05q1.6.7 2.575 2.05.975 1.35.975 3.3v.45l-7.25-7.25q.9.3 1.825.675.925.375 1.875.775Zm-8.95-6.75-2.65-2.6q1.5-.3 2.5-1.5t1-2.8q0-1.85-1.275-3.125T24 11.75q-1.6 0-2.8.975-1.2.975-1.5 2.525l-2.65-2.65q.95-2 2.85-3.075Q21.8 8.45 24 8.45q3.2 0 5.45 2.225t2.25 5.475q0 2.2-1.075 4.075T27.55 23.05Zm5.15 13.8H11.2h21.5ZM22.35 17.8Z"/></svg>

<svg xmlns="http://www.w3.org/2000/svg" height="48" width="48"><path d="M40.9 45 36 40.15H7.95V35.25Q7.95 33.3 8.925 31.9Q9.9 30.5 11.45 29.8Q14.45 28.45 17.2 27.725Q19.95 27 22.75 26.85Q22.75 26.85 22.75 26.85Q22.75 26.85 22.75 26.85L3 7.1L5.1 4.95L43.05 42.85ZM11.2 36.85H32.7L26 30.15Q25.55 30.15 25.025 30.125Q24.5 30.1 24 30.1Q21.2 30.1 18.55 30.65Q15.9 31.2 12.85 32.7Q12.15 33.05 11.675 33.775Q11.2 34.5 11.2 35.3ZM36.5 29.8Q38.1 30.5 39.075 31.85Q40.05 33.2 40.05 35.15V35.6L32.8 28.35Q33.7 28.65 34.625 29.025Q35.55 29.4 36.5 29.8ZM27.55 23.05 24.9 20.45Q26.4 20.15 27.4 18.95Q28.4 17.75 28.4 16.15Q28.4 14.3 27.125 13.025Q25.85 11.75 24 11.75Q22.4 11.75 21.2 12.725Q20 13.7 19.7 15.25L17.05 12.6Q18 10.6 19.9 9.525Q21.8 8.45 24 8.45Q27.2 8.45 29.45 10.675Q31.7 12.9 31.7 16.15Q31.7 18.35 30.625 20.225Q29.55 22.1 27.55 23.05ZM32.7 36.85H11.2Q11.2 36.85 11.675 36.85Q12.15 36.85 12.85 36.85Q14.35 36.85 15.9 36.85Q17.45 36.85 19.625 36.85Q21.8 36.85 24.9 36.85Q28 36.85 32.7 36.85Q32.7 36.85 32.7 36.85Q32.7 36.85 32.7 36.85ZM22.35 17.8Q22.35 17.8 22.35 17.8Q22.35 17.8 22.35 17.8Q22.35 17.8 22.35 17.8Q22.35 17.8 22.35 17.8Q22.35 17.8 22.35 17.8Q22.35 17.8 22.35 17.8Z"/></svg>
